X: 1
T: the Scottish Legacy
M: C|
L: 1/8
R: Reel
B: Gow - Third Collection of Niel Gow's Reels (1792)
Z: AK/Fiddler's Companion
K: G
d |\
~G2GA GDB,D | ~d2de dcBA | ~GFG.A BGBd | EGFA G/G/G G :|
B |\
G2Bd g2g2 |     fedg edB2 | G2Bd g2g2 | fedf e/e/e e>f ||
g2eg fdB2 | {cd}e2ce dcBA | G2GA BGBd | EGFA G/G/G G |]
